!!!!SEGMENT: pl-wtm--1936-fp-6535_stojowski-zygmunt--mazurka-op-8-no-2.krn
!!!cenid: 18xx:4449
!!!COM: Stojowski, Zygmunt
!!!COM-rismID: pe41019736
!!!CDT: 1870-1946
!!!CNT: Polish
!!!OTL: Mazurka Op. 8 No. 2
!!!PDT: 1891
!!!AGN:
!!!YEC: Copyright 2022 Narodowy Instytut Fryderyka Chopina (https://polishscores.org)
!!!YEM: License CC-BY-4.0 (https://creativecommons.org/licenses/by/4.0)
!!!SMS-siglum: PL-Wtm
!!!SMS-shelfmark: 1936 fp 6535
!!!SMS-variant:
!!!SMS-altvar:
!!!SMS-shelfwork: W
!!!NIFC-rismSourceID: 1001213153
!!!NIFC-rismChildID: 1001213153
!!!NIFC-islandoraID: pl-wtm:87006
!!!URL-pdf-islandora: https://repozytorium.nifc.pl/islandora/object/pl-wtm%3A87006/datastream/PDF/view
!!!URL-scan: https://polish.musicsources.pl/pl/lokalizacje/galeria/druki-muzyczne/19040/2 @EN{Scan on Polish Music Sources Website} @PL{Skany w portalu Dziedzictwo Muzyki Polskiej w otwartym dostępie}
!!!IIIF:
!!!ONB-nifc:
!!!AIN: 1 piano
!!!key: C
**kern	**kern	**fing	**dynam
*part1	*part1	*part1	*part1
*staff2	*staff1	*	*
*I"PIANO.	*I"PIANO.	*	*
*I'[pf]	*I'[pf]	*	*
*ICklav	*ICklav	*	*
*Ipiano	*Ipiano	*	*
*clefF4	*clefG2	*	*
*k[]	*k[]	*	*
*C:	*C:	*	*
*M3/4	*M3/4	*	*
=1	=1	=1	=1
!	!LO:TX:a:B:t=Con spirito.	!	!
4r	4r	.	.
.	(8qf#X/	.	ff
4GGG/ 4GG	4G/ 4g)	.	.
4GGG/ 4GG	4G/ 4g	.	.
=2	=2	=2	=2
*ped	*	*	*
8.GG/ 8.D	8.A/ 8.fn	.	.
!	!LO:TX:b:i:t=m.g.	!	!
16a>\	16ryy	.	.
!	!LO:TX:a:i:t=m.d.	!	!
4ryy	2dd/ 2ddd	.	.
4ryy	.	.	.
*Xped	*	*	*
=3	=3	=3	=3
4r	4r	.	.
.	(8qf#X/	.	.
4GGG/ 4GG	4G/ 4g)	.	.
4GGG/ 4GG	4G/ 4g	.	.
=4	=4	=4	=4
*ped	*	*	*
8.GG/ 8.D	8.A/ 8.fn	.	.
16a>\	16ryy	.	.
4ryy	2dd/ 2ddd	.	.
4ryy	.	.	.
*Xped	*	*	*
=5	=5	=5	=5
*	*	*	*^
*	*	*	*	*^
4r	4r	.	.	.	.
.	(8qb/	.	.	.	.
!	!	!	!LO:DY:b	!LO:DY:a	!LO:DY:b=2
4CC/ 4C	4c/ 4cc)	.	p	sf	sf
4CC/ 4C	4c/ 4cc	.	.	.	.
*	*	*	*	*v	*v
*	*	*	*v	*v
=6	=6	=6	=6
*ped	*	*	*
8.C\ 8.G	8.d/ 8.b-X	.	.
!	!LO:TX:b:i:t=m.g.	!	!
16dd>\	16ryy	.	.
!	!LO:TX:a:i:t=m.d.	!	!
4ryy	2gg/	.	.
4ryy	.	.	.
*Xped	*	*	*
!!LO:LB:g=original	!	!
=7	=7	=7	=7
*	*	*	*^
4r	4r	.	.	.
.	(8qbn/	.	.	.
!	!	!	!LO:DY:a	!LO:DY:b=2
4CC/ 4C	4c/ 4cc)	.	sf	sf
4CC/ 4C	4c/ 4cc	.	.	.
*	*	*	*v	*v
=8	=8	=8	=8
*ped	*	*	*
8.C\ 8.G	8.d/ 8.b-X	.	.
16dd>\	16ryy	.	.
4ryy	[>2gg/	.	.
4ryy	.	.	.
*Xped	*	*	*
=9	=9	=9	=9
2.r	2.gg\_	.	.
=10	=10	=10	=10
2.r	4gg\]	.	.
.	[2g^/	.	.
=11	=11	=11	=11
2.r;	2.g;/_	.	.
=12	=12	=12	=12
*	*^	*	*
!	!LO:TX:b:i:t=con grazia	!	!	!
4GG/	8.g/L]	[2.g\	.	p
.	(16a/Jk	.	.	.
4G\ 4c 4f	8dd'/)	.	.	.
.	8r	.	.	.
4G\ 4B 4f	[4dd^/	.	.	.
=13	=13	=13	=13	=13
4C\ 4G	8.dd/L]	4g\_	.	.
.	(16ee/Jk	.	.	.
4A\ 4c 4e	4cc/)	8g\]	.	.
.	.	8r	.	.
4G\ 4c 4e	8b'/L	4r	.	.
.	8a'/J	.	.	.
!!LO:LB:g=original	!	!	!
=14	=14	=14	=14	=14
4GG/	(8g/L	[2.g\	.	.
.	8a/J	.	.	.
4G\ 4c 4f	4.dd/)	.	.	.
4G\ 4B 4f	.	.	.	.
.	8dd'/	.	.	.
=15	=15	=15	=15	=15
4C\ 4G	8ee'/L	4g\_	.	.
.	[8gg/J	.	.	.
!	!LO:TX:b:i:t=poco rit.	!	!	!
4G\ 4c 4e	8gg/]	8g\]	.	.
.	8r	8r	.	.
4E\ 4G 4c	[4gg\	4ryy	.	.
*	*v	*v	*	*
=16	=16	=16	=16
4FF/	8.gg\L]	.	.
.	(16aa\Jk	.	.
!	!LO:TX:b:i:t=a tempo	!	!
4F\ 4B-X 4e-X	8ddd\)	.	.
.	8r	.	.
4F\ 4A 4e-	[4ff^\ [4ddd	.	.
=17	=17	=17	=17
*	*^	*	*
4BBB-X/ 4BB-X	8.ddd\L]	2.ff/]	.	.
.	(16fff\Jk	.	.	.
4F\ 4B-X 4d	4ddd\	.	.	.
4D\ 4F 4B-	8ccc\L)	.	.	.
.	8bb-X'\J	.	.	.
*	*v	*v	*	*
=18	=18	=18	=18
4DD/ 4D	8aa'\L	.	.
.	8gg'\J	.	.
8A\ 8Bn	8ff'\	.	.
8r	8r	.	.
8GG':/ 8G:	8f':\ 8b: 8ee: 8gg:	.	.
8r	8r	.	.
!!LO:LB:g=original	!	!
=19	=19	=19	=19
*^	*^	*	*
4r	[4CC\ [4C	[<4c/ 4cc	4r	.	.
8E/ 8G	8CC\] 8C]	8c/] 8cc	8e\ 8g	.	.
8r	8ryy	8r	8ryy	.	.
.	.	(8qg/	.	.	.
4r	4ryy	[4G/)	4ryy	.	.
*v	*v	*	*	*	*
=20	=20	=20	=20	=20
4GGG/ 4GG	8.G/L]	[4G\	.	.
.	(16A/Jk	.	.	.
8c'\L 8f	8d'/)	8G\]	.	.
8B'\	8r	8ryy	.	.
8A'\	[4d^>/	4ryy	.	.
8G'\J	.	.	.	.
*	*v	*v	*	*
=21	=21	=21	=21
4C\ 4G	8.d/L]	.	.
.	(16e/Jk	.	.
*clefG2	*	*	*
8f'/L 8g	4c/)	.	.
8e'/	.	.	.
8d'/	8B'/L	.	.
8c'/J	8A'/J	.	.
*clefF4	*	*	*
=22	=22	=22	=22
*	*^	*	*
4GG/	8.G/L	[4G\	.	.
.	(16A/Jk	.	.	.
8c'\L 8f	8d/)	8G\]	.	.
8B'\	8r	8ryy	.	.
8A'\	(4d/	4ryy	.	.
8G'\J	.	.	.	.
*	*v	*v	*	*
!!LO:LB:g=original	!	!
=23	=23	=23	=23
4C\ 4G	16e/KL	.	.
.	[8.g/J	.	.
*clefG2	*	*	*
!	!LO:TX:b:i:t=rit.	!	!
4cc\ 4ee	4g/])	.	.
4r	[4gg\ [4ggg	.	.
*clefF4	*	*	*
=24	=24	=24	=24
4FF/	8gg\] 8ggg]	.	.
.	16r	.	.
!	!LO:TX:a:i:t=a tempo	!	!
.	(16a/	.	.
8B-X'\L 8e-X	8dd\)	.	.
8A'\	8r	.	.
8G'\	[4dd\	.	.
8F'\J	.	.	.
=25	=25	=25	=25
4BB-X\ 4F	8.dd\L]	.	.
.	(16ff\Jk	.	.
*clefG2	*	*	*
8g'/L 8b-X	4dd\	.	.
8f'/	.	.	.
8e-X'/	8cc\L	.	.
8d'/J	8b-X\J	.	.
*clefF4	*	*	*
=26	=26	=26	=26
4D\	8a/L)	.	.
.	8g'/	.	.
!	!LO:TX:b:i:t=slentando	!	!
4A\ 4Bn	8f'/	.	.
.	8g'/J	.	.
!	!LO:TX:a:i:t=m.g.	!	!
8GG:/ 8D: 8G:	16B:/KL 16f: 16a:	.	.
.	8.dd/J	.	.
8r	.	.	.
=27	=27	=27	=27
*	*^	*	*
4CC/ 4GG	4r	2cc^\	.	.
4G\ 4c 4e	4ee:/ 4gg: 4ccc:	.	.	.
.	(8qgg/	.	.	.
4r	[4g/)	4ryy	.	.
!!LO:PB:g=original	!	!	!
=28	=28	=28	=28	=28
!	!LO:TX:b:i:t=con grazia	!	!	!
!	!LO:TX:a:i:t=a tempo	!	!	!
4GG/	8.g/L]	[2.g\	.	p
.	(16a/Jk	.	.	.
4G\ 4c 4f	8dd'/)	.	.	.
.	8r	.	.	.
4G\ 4B 4f	[4dd^/	.	.	.
=29	=29	=29	=29	=29
4C\ 4G	8.dd/L]	4g\_	.	.
.	(16ee/Jk	.	.	.
4A\ 4c 4e	4cc/)	8g\]	.	.
.	.	8r	.	.
4G\ 4c 4e	8b'/L	4r	.	.
.	8a'/J	.	.	.
=30	=30	=30	=30	=30
4GG/	(8g/L	[2.g\	.	.
.	8a/J	.	.	.
4G\ 4c 4f	4.dd/)	.	.	.
4G\ 4B 4f	.	.	.	.
.	8dd'/	.	.	.
=31	=31	=31	=31	=31
4C\ 4G	8ee'/L	4g\_	.	.
.	[8gg/J	.	.	.
!	!LO:TX:b:i:t=poco rit.	!	!	!
4G\ 4c 4e	8gg/]	8g\]	.	.
.	8r	8r	.	.
4E\ 4G 4c	[4gg\	4ryy	.	.
=32	=32	=32	=32	=32
4FF/	8.gg\L]	4gg/	.	.
.	(16aa\Jk	.	.	.
!	!LO:TX:a:i:t=a tempo	!	!	!
4F\ 4B-X 4e-X	8ddd\)	4ryy	.	.
.	8r	.	.	.
4F\ 4A 4e-	[4ff^\ [4ddd	4ryy	.	.
!!LO:LB:g=original	!	!	!
=33	=33	=33	=33	=33
4BBB-X/ 4BB-X	8.ddd\L]	2.ff/]	.	.
.	(16fff\Jk	.	.	.
4F\ 4B-X 4d	4ddd\	.	.	.
4D\ 4F 4B-	8ccc\L)	.	.	.
.	8bb-X'\J	.	.	.
*	*v	*v	*	*
=34	=34	=34	=34
4DD/ 4D	8aa'\L	.	.
.	8gg'\J	.	.
8A\ 8Bn	8ff'\	.	.
8r	8r	.	.
8GG':/ 8G:	8f':\ 8b: 8ee: 8gg:	.	.
8r	8r	.	.
=35	=35	=35	=35
*^	*^	*	*
4r	[4CC\ [4C	[<4c/ [4cc	4r	.	.
8E/ 8G	8CC\] 8C]	8c/] 8cc]	8e\ 8g	.	.
8r	8ryy	8r	8ryy	.	.
.	.	(8qg/	.	.	.
4r	4ryy	[4G/)	4ryy	.	.
*v	*v	*	*	*	*
=36	=36	=36	=36	=36
4GGG/ 4GG	8.G/L]	[4G\	.	.
.	(16A/Jk	.	.	.
8c'\L 8f	8d'/)	8G\]	.	.
8B'\	8r	8ryy	.	.
8A'\	[4d^>/	4ryy	.	.
8G'\J	.	.	.	.
*	*v	*v	*	*
=37	=37	=37	=37
4C\ 4G	8.d/L]	.	.
.	(16e/Jk	.	.
*clefG2	*	*	*
8f'/L 8g	4c/)	.	.
8e'/	.	.	.
8d'/	8B'/L	.	.
8c'/J	8A'/J	.	.
*clefF4	*	*	*
!!LO:LB:g=original	!	!
=38	=38	=38	=38
*	*^	*	*
4GG/	8.G/L	[4G\	.	.
.	(16A/Jk	.	.	.
8c'\L 8f	8d/)	8G\]	.	.
8B'\	8r	8ryy	.	.
8A'\	(4d/	4ryy	.	.
8G'\J	.	.	.	.
*	*v	*v	*	*
=39	=39	=39	=39
4C\ 4G	16e/KL	.	.
.	[8.g/J	.	.
*clefG2	*	*	*
!	!LO:TX:b:i:t=rit.	!	!
4cc\ 4ee	4g/])	.	.
4r	[4gg\ [4ggg	.	.
*clefF4	*	*	*
=40	=40	=40	=40
4FF/	8gg\] 8ggg]	.	.
.	16r	.	.
!	!LO:TX:a:i:t=a tempo	!	!
.	(16a/	.	.
8B-X'\L 8e-X	8dd\)	.	.
8A'\	8r	.	.
8G'\	[4dd\	.	.
8F'\J	.	.	.
=41	=41	=41	=41
4BB-X\ 4F	8.dd\L]	.	.
.	(16ff\Jk	.	.
*clefG2	*	*	*
8g'/L 8b-X	4dd\	.	.
8f'/	.	.	.
8e-X'/	8cc\L	.	.
8d'/J	8b-X\J	.	.
*clefF4	*	*	*
!!LO:LB:g=original	!	!
=42	=42	=42	=42
4D\	8a/L)	.	.
.	8g/	.	.
!	!LO:TX:b:i:t=slentando	!	!
4A\ 4Bn	8f'/	.	.
.	8g'/J	.	.
!	!LO:TX:a:i:t=m.g.	!	!
8GG::/ 8D:: 8G::	16B::/KL 16f:: 16a::	.	.
.	8.dd/J	.	.
8r	.	.	.
=43	=43	=43	=43
*	*^	*	*
4CC/ 4GG	4r	2cc^\	.	.
4G\ 4c 4e	4ee:/ 4gg: 4ccc:	.	.	.
4r	4r	4ryy	.	.
*	*v	*v	*	*
=44||	=44||	=44||	=44||
*yyM3/4	*yyM3/4	*	*
!	!LO:TX:a:B:t=Più mosso energico.	!	!LO:DY:b=2
4EEE:/ 4EE:	4r	.	sf
4E\ 4G 4B 4e	4cc\ 4ee 4gg 4ccc	.	ff
8d^\L	8dd^\L 8ddd	.	.
8B\J	8b\J 8bb	.	.
=45	=45	=45	=45
8c\L	8cc\L 8ccc	.	.
8A\	8a\ 8aa	.	.
8G\	8g\ 8gg	.	.
8B\	8b\ 8bb	.	.
8A\	8a\ 8aa	.	.
8F#X\J	8f#X\J 8ff#X	.	.
!!LO:LB:g=original	!	!
=46	=46	=46	=46
8G\L	8g\L 8gg	.	.
8E\J	8e\J 8ee	.	.
4D\	4d/ 4dd	.	.
*	*	*	*^
!	!	!	!LO:DY:a	!LO:DY:b=2
4D\	4d/ 4dd	.	sf	sf
=47	=47	=47	=47	=47
*	*^	*	*	*
*^	*	*	*	*	*
.	N(>8qdd>/	(<8qc\	.	.	.	.
4C'/	4ryy	4g'/N) 4cc)	4ryy	.	.	.
!	!	!	!	!	!LO:DY:a	!LO:DY:b=2
2BB/	4ryy	2B/ 2b	4ryy	.	sf	sf
.	4GG\	.	4d#X\ 4g	.	.	.
*	*	*	*	*	*v	*v
*v	*v	*	*	*	*
*	*v	*v	*	*
=48	=48	=48	=48
4EEE/ 4EE	4r	.	.
4E\ 4G 4B 4e	4cc\ 4ee 4gg 4ccc	.	.
8d^\L	8dd^\L 8ddd	.	.
8B\J	8b\J 8bb	.	.
=49	=49	=49	=49
8c\L	8cc\L 8ccc	.	.
8A\	8a\ 8aa	.	.
8G\	8g\ 8gg	.	.
8B\	8b\ 8bb	.	.
8A\	8a\ 8aa	.	.
8F#X\J	8f#X\J 8ff#X	.	.
!!LO:PB:g=original	!	!
=50	=50	=50	=50
8G\L	8g\L 8gg	.	.
8E\J	8e\J 8ee	.	.
4D\	4d/ 4dd	.	.
*	*	*	*^
!	!	!	!LO:DY:a	!LO:DY:b=2
4AA/ 4E	4c#X/ 4g 4dd	.	sf	sf
*	*	*	*v	*v
=51	=51	=51	=51
!	!LO:TX:b:i:t=rit. assai	!	!
.	(>8qdd/	.	.
*	*^	*	*
4DD'/ 4AA 4D	4cn/) 4f#X 4ccn	4ryy	.	.
*	*	*	*color:grey	*
!	!	!LO:TX:t=P:problem: aplikatura zapisano ołówkiem	!	!LO:DY:a
2GG/ 2D	2B/ [2b	(4g\	4	sf
.	.	8f#\L	.	.
.	.	8e#X\J	.	.
=52	=52	=52	=52	=52
!	!LO:TX:b:i:t=dolce rubato	!	!	!
!	!LO:TX:a:i:t=più lento e molto espress.	!	!	!
4FF#X/	(8b/L]	4en\)	1	.
.	8a#X/	.	2	.
4F#X^\ 4A#X 4e	8cc#X/	(4g#X\	1 3	.
.	8dd#X/J	.	4	.
[>4FF#/	[4ee/	4f#X\)	1 5	.
=53	=53	=53	=53	=53
4BBB/ 4FF#]	8ee/L]	4r	.	.
.	8dd#X/	.	4	.
4F#X\ 4B 4d#X	8cc#X/	(4g#X\	2 3	.
.	8ee/	.	5	.
[>4FF#X/	8dd#/	4f#X\)	.	.
.	[8b/J)	.	3	.
=54	=54	=54	=54	=54
4FFF#X/ 4FF#]	(8b/L]	4r	.	.
.	8a#X/	.	.	.
4F#X\ 4A#X 4e	8cc#X/	(4g#X\	.	.
.	8dd#X/	.	.	.
[>4FF#X/	8ee/	4f#X\)	.	.
.	8gg#X/J	.	4	.
!!LO:LB:g=original	!	!	!	!
=55	=55	=55	=55	=55
*^	*	*	*	*
4FF#/]	4BBB\	8bb:/L	8dd#X:\	.	.
.	.	8ff#X/	8r	.	.
4F#X\ 4B 4d#X	4ryy	8ee:/	(4g#X:\ 4b:	.	.
.	.	8dd#/	.	.	.
[>4FF#X/	4ryy	8cc#X/	4f#X\)	.	.
.	.	[8b/J)	.	3	.
=56	=56	=56	=56	=56	=56
4FF#/]	4FFF#X\	(8b/L]	4r	.	.
.	.	8a#X/	.	.	.
4F#X\ 4A#X 4e	4ryy	8cc#X/	(4g#X\	.	.
.	.	8dd#X/J	.	.	.
[>4FF#X/	4ryy	[4ee:/	4f#X:\)	.	.
=57	=57	=57	=57	=57	=57
4FF#/]	4BBB\	8ee/L]	4r	.	.
.	.	8dd#X/	.	.	.
4F#X\ 4B 4d#X	4ryy	8cc#X/	(4g#X\	.	.
.	.	8ee/	.	.	.
(4BBB/	4ryy	8dd#/	4f#X\)	.	.
.	.	[8b/J)	.	3	.
*v	*v	*	*	*	*
=58	=58	=58	=58	=58
4DDn/)	(8b/L]	4r	.	.
.	8b-X/	.	.	.
4B-X\ 4fnX 4a-X	8ffn/	(4ccn\	.	.
.	8gg/J	.	.	.
!	!LO:TX:b:i:t=rall.	!	!	!
(<4BBB-X/ [4BB-X	[4aa-X/	[4b-X\)	.	.
=59	=59	=59	=59	=59
*^	*	*	*	*
4BB-y/]	4EE-X\)	8aa-/L]	4b-\]	.	.
.	.	8gg/	.	.	.
!	!	!LO:SIC:v:s=4g 4e- 4B- 	!	!	!
4B\ 4e-X 4g	4ryy	8ff/	(4cc\	.	.
.	.	8aa-X/	.	.	.
*8ba	*	*	*	*	*
4EEE-X/ 4EE-X	4ryy	8gg/	4b-X\)	.	.
*X8ba	*	*	*	*	*
.	.	8ee-X/J)	.	.	.
*v	*v	*	*	*	*
*	*v	*v	*	*
!!LO:LB:g=original	!	!	!
=60	=60	=60	=60
*8ba	*	*	*
!LO:TX:b:i:t=con 8	!	!	!
4CCC^</	4r	.	.
*X8ba	*8va	*	*
!	!LO:TX:a:i:t=a tempo animato	!	!
4G\ 4c 4e-X 4g	4ccc\ 4eee-X 4ggg 4cccc	.	ff
8G^\L 8g	8bb-X^\L 8bbb-X	.	.
8B-X\J 8b-X	8gg\J 8ggg	.	.
=61	=61	=61	=61
8F\L 8f	8aa-X\L 8aaa-X	.	.
8A-X\ 8a-X	8ff\ 8fff	.	.
8G\ 8g	8ee-X\ 8eee-X	.	.
8E-X\ 8e-X	8gg\ 8ggg	.	.
8D\ 8d	8ff\ 8fff	.	.
8F\J 8f	8dd\J 8ddd	.	.
=62	=62	=62	=62
8C\L 8c	8ee-X/L 8eee-X	.	.
8E-X\J 8e-X	8cc/J 8ccc	.	.
4G\ 4g	4b-X/ 4bb-X	.	.
*	*X8va	*	*
4C^\ 4c	4b-^\ 4ee- 4bb-	.	.
=63	=63	=63	=63
.	(>8qbb-X/	.	.
4F'\ 4A-X 4c	4a-X'\) 4ee-X 4aa-X	.	.
4C^\ 4E-X 4G 4c	2g^\ 2cc 2ee- 2gg	.	.
4GG/ 4G	.	.	.
=64	=64	=64	=64
4CC^/ 4C	4r	.	.
*	*8va	*	*
4G\ 4c 4e-X 4g	4ccc\ 4eee-X 4ggg 4cccc	.	ff
8G^\L 8g	8bb-X^\L 8bbb-X	.	.
8B-X\J 8b-X	8gg\J 8ggg	.	.
*	*X8va	*	*
!!LO:LB:g=original	!	!	!
=65	=65	=65	=65
*	*8va	*	*
8F\L 8f	8aa-X\L 8aaa-X	.	.
8A-X\ 8a-X	8ff\ 8fff	.	.
8G\ 8g	8ee-X\ 8eee-X	.	.
8E-X\ 8e-X	8gg\ 8ggg	.	.
8D\ 8d	8ff\ 8fff	.	.
8F\J 8f	8dd\J 8ddd	.	.
=66	=66	=66	=66
8C\L 8c	8ee-X/L 8eee-X	.	.
8E-X\J 8e-X	8cc/J 8ccc	.	.
4G\ 4g	4b-X/ 4bb-X	.	.
*	*X8va	*	*
!	!LO:TX:i:b:t=rit.	!	!
4F^\ 4c 4f	4an^\ 4ee-X 4bb-X	.	.
=67	=67	=67	=67
.	(>8qbb-X/	.	.
*	*^	*	*
4B-X'\ 4f	4a-X'\) 4dd 4aa-X	4ryy	.	.
4E-X^\ 4B- 4e-X	[2g/ 2gg	4dd\	.	.
4r	.	4c#X^\	.	.
=68	=68	=68	=68	=68
!	!LO:TX:a:i:t=molto espr. e rubato	!	!	!
4DD/	(8g/L]	4cn^\	.	.
!	!LO:TX:b:i:t=poco più lento	!	!	!
.	8f#X/	.	.	.
4F#X\	8an/	4e\ 4fn	.	.
.	8bn/J	.	.	.
(<[>4DD/	[4cc:/	4d:\ 4f:	.	.
=69	=69	=69	=69	=69
*^	*	*	*	*
4DD/]	4GGG\)	8cc/L]	4r	.	.
.	.	8b/	.	.	.
4D\ 4G 4B	4ryy	8a:/	(4e:\ 4g:	.	.
.	.	8cc/	.	.	.
(<[>4DD/	4ryy	8b/	4d\)	.	.
.	.	[8g/J)	.	.	.
=70	=70	=70	=70	=70	=70
4DD/]	4GGG\)	(8g/L]	4r	.	>
.	.	8f#X/	.	.	.
4D\ 4F#X 4c	4ryy	8a:/	4e:\ 4f#:	.	.
.	.	8b:/	.	.	.
(<[>4DD/	4ryy	8cc/	4d\ 4f#	.	.
.	.	8ee/J	.	.	]]
!!LO:LB:g=original	!	!	!	!	!
=71	=71	=71	=71	=71	=71
4DD/]	4GGG\)	8gg:/L	8b:\	.	.
.	.	8dd/	8r	.	.
4D\ 4G 4B	4ryy	8ccM/	(4e\ 4g	.	.
.	.	8b/	.	.	.
(<[>4DD/	4ryy	8a/	4d\)	.	.
.	.	[8g/J)	.	1	.
=72	=72	=72	=72	=72	=72
4DD/]	4GGG\)	(8g/L]	4r	.	.
.	.	8f#X/	.	.	p
4D\ 4F#X 4c	4ryy	8a/	(4e\ 4f#	.	.
.	.	8b/J	.	.	.
(<[>4DD/	4ryy	[4cc/	4d\) 4f#	.	.
=73	=73	=73	=73	=73	=73
4DD/]	4GGG\)	8cc/L]	4r	.	.
.	.	8b/	.	.	.
4D\ 4G 4B	4ryy	8a/	(4e\ 4g	.	.
.	.	8cc/	.	.	.
(4DD/	4ryy	8b/	4d\)	.	.
.	.	[8g/J)	.	2	.
*v	*v	*	*	*	*
=74	=74	=74	=74	=74
4AAA#X/)	(8g/L]	4r	.	.
.	8f#X/	.	.	.
!	!	!	!	!LO:HP:t=rall. e dim.
4F#X\ 4c#X 4e	8cc#X/	4g\	.	>
.	8dd#X/J	.	.	.
4FFF#X/ [4FF#X	[4ee/	4f#\	.	.
=75	=75	=75	=75	=75
4BBB/ 4FF#]	8ee/L]	4r	.	.
.	8dd#X/	.	.	.
4F#X\ 4B 4d#X	8cc#X/	4g#X\ 4b	.	.
.	8ee/	.	.	.
4BBB/ 4BB	8dd#/	[8f#X\	.	.
.	16b/Jk)	16f#\]	.	.
.	16r	16ryy	.	.
*	*v	*v	*	*
!!LO:PB:g=original	!	!	!
=76	=76	=76	=76
!	!LO:TX:a:i:t=a tempo animato	!	!
4EEE/ 4EE	4r	.	ff
!	!LO:TX:b:i:t=energico	!	!
4E\ 4G 4B 4e	4ee\ 4gg 4bb 4eee	.	.
8D^\L 8d	8dd^\L 8ddd	.	.
8BB\J 8B	8b\J 8bb	.	.
=77	=77	=77	=77
8C\L 8c	8cc\L 8ccc	.	.
8AA\ 8A	8a\ 8aa	.	.
8GG\ 8G	8g\ 8gg	.	.
8BB\ 8B	8b\ 8bb	.	.
8AA\ 8A	8a\ 8aa	.	.
8FF#X\J 8F#X	8f#X\J 8ff#X	.	.
=78	=78	=78	=78
8GG/L 8G	8g\L 8gg	.	.
8EE/J 8E	8e\J 8ee	.	.
4DD/ 4D	4d/ 4dd	.	.
4DD^/ 4D	4d^/ 4dd	.	.
=79	=79	=79	=79
.	(8qdd/	.	.
*	*^	*	*
4CC'/ 4C	4c'/ 4g 4cc)	4ryy	.	.
4BBB^/ 4BB	2B^</ 2b	4ryy	.	.
4GGG/ 4GG	.	4d#X\ 4g	.	.
*	*v	*v	*	*
=80	=80	=80	=80
4EEE/ 4EE	4r	.	.
4E\ 4G 4B 4e	4ee\ 4gg 4bb 4eee	.	.
8D^\L 8d	8dd^\L 8ddd	.	.
8BB\J 8B	8b\J 8bb	.	.
=81	=81	=81	=81
8C\L 8c	8cc\L 8ccc	.	.
8AA\ 8A	8a\ 8aa	.	.
8GG\ 8G	8g\ 8gg	.	.
8BB\ 8B	8b\ 8bb	.	.
8AA\ 8A	8a\ 8aa	.	.
8FF#X\J 8F#X	8f#X\J 8ff#X	.	.
!!LO:LB:g=original	!	!	!
=82	=82	=82	=82
8GG/L 8G	8g\L 8gg	.	.
8EE/J 8E	8e\J 8ee	.	.
4DD/ 4D	4d/ 4dd	.	.
4AA^/ 4E	4c#X^/ 4g 4dd	.	.
=83	=83	=83	=83
!	!LO:TX:b:i:t=rit.	!	!
.	(>8qdd/	.	.
4DD'/ 4AA 4D	4cn'/ 4f#X 4ccn)	.	.
2GG^/ 2D	4B^/ 4fn 4b	.	.
.	4G^/ 4g	.	.
=84	=84	=84	=84
*^	*^	*	*
*	*8ba	*	*	*	*
!	!	!LO:TX:a:B:t=Tempo I.	!	!	!
8.r	4CCC\ 4GGG 4CC	8.r	4F\ 4G 4B 4f 4g	.	fff
*	*X8ba	*	*	*	*
(<16A/	.	(16a\ 16aa	.	.	.
4d/)	4ryy	4dd\) 4ddd	4ryy	.	.
4G^\ 4B 4f 4g	4ryy	4dd^\ 4ff 4gg 4bb 4ddd	4ryy	.	.
=85	=85	=85	=85	=85	=85
8.r	4CC^\ 4GG 4C	8.r	4G^<\ 4c 4e 4g	.	.
(<16e/	.	(16ee\ 16eee	.	.	.
4c/)	4ryy	4cc\) 4ccc	4ryy	.	.
8B/L	4ryy	8b\L 8bb	4ryy	.	.
8A/J	.	8a\J 8aa	.	.	.
=86	=86	=86	=86	=86	=86
8.r	4CC\ 4GG	8.r	4F\ 4G 4B 4f 4g	.	.
(<16A/	.	(16a\ 16aa	.	.	.
4d/)	4ryy	4dd\) 4ddd	4ryy	.	.
4G\ 4B 4f 4g	4ryy	4dd\ 4ff 4gg 4bb 4ddd	4ryy	.	.
*v	*v	*	*	*	*
*	*v	*v	*	*
=87	=87	=87	=87
4CC^/ 4GG	16ee\KL 16gg 16ccc 16eee	.	.
.	[8.gg\J [8.ggg	.	.
!	!LO:TX:b:i:t=m.g.	!	!
4G>\ 4c> 4e> 4g>	4gg/] 4ggg]	.	.
!	!LO:TX:a:i:t=m.d.	!	!
4r	4G/ 4c 4e 4g	.	.
!!LO:LB:g=original	!	!	!
=88	=88	=88	=88
*^	*^	*	*
8.r	4FFF:\ 4FF:	8.r	4G\ 4A 4e-X 4g	.	.
(16A\	.	(16a\ 16aa	.	.	.
4d\)	4ryy	4dd\) 4ddd	4ryy	.	.
4F\ 4A 4e-X 4f	4ryy	4dd\ 4ff 4aa 4ddd	4ryy	.	.
=89	=89	=89	=89	=89	=89
*	*8ba	*	*	*	*
!LO:TX:b:i:t=con 8	!	!	!	!	!
8.r	4BBBB-X	8.r	4D</ 4F< 4B-X 4d	.	.
*	*X8ba	*	*	*	*
(16f\	.	(16ff\ 16fff	.	.	.
4d\)	4ryy	4dd\) 4ddd	4ryy	.	.
8c\L	4ryy	8cc\L 8ccc	4ryy	.	.
8B-X\J	.	8b-X\J 8bb-X	.	.	.
*	*	*v	*v	*	*
=90	=90	=90	=90	=90
8A:/L	4DD:\	8a\L 8dd 8ff 8aa	.	.
8G/	.	8g\ 8gg	.	.
8F/	4r	8f\ 8ff	.	.
8G/	.	8g\ 8gg	.	.
8A:/	4GG:\	8a\ 8dd 8ff 8aa	.	.
8d/J	.	8dd\J 8ddd	.	.
*clefG2	*	*	*	*
=91	=91	=91	=91	=91
*	*	*8va	*	*
8a:/L	4D:\	8aa\L 8ddd 8fff 8aaa	.	.
8g/	.	8gg\ 8ggg	.	.
8f/	4r	8ff\ 8fff	.	.
8g/	.	8gg\ 8ggg	.	.
8a:/	4G:\	8aa\ 8ddd 8fff 8aaa	.	.
8dd/J	.	8ddd\J 8dddd	.	.
*v	*v	*	*	*
=92	=92	=92	=92
!	!LO:N:vis=16	!	!
16d/	8aaa/L 8dddd 8ffff 8aaaa	.	.
!LO:N:vis=16	!	!	!
8ff>\L	.	.	.
!	!LO:N:vis=16	!	!
.	8ggg/J 8gggg	.	.
!LO:N:vis=16	!	!	!
8dd>\J	.	.	.
!	!LO:N:vis=16	!	!
.	8fff/L 8ffff	.	.
!LO:N:vis=16	!	!	!
8cc>\L	.	.	.
!	!LO:N:vis=16	!	!
.	8ddd/J 8dddd	.	.
!LO:N:vis=16	!	!	!
8a>\J	.	.	.
!	!LO:N:vis=16	!	!
.	8ccc/L 8cccc	.	.
!LO:N:vis=16	!	!	!
8g>\L	.	.	.
!	!LO:N:vis=16	!	!
.	8aa/J 8aaa	.	.
16f>\Jk	.	.	.
!!LO:LB:g=original	!	!	!
=93	=93	=93	=93
!	!LO:N:vis=16	!	!
16ryy	8gg/L 8ggg	.	.
!LO:N:vis=16	!	!	!
8d>\L	.	.	.
!	!LO:N:vis=16	!	!
.	8ff/J 8fff	.	.
!LO:N:vis=16	!	!	!
8c>\J	.	.	.
*	*X8va	*	*
!	!LO:N:vis=16	!	!
.	8dd/L 8ddd	.	.
!LO:N:vis=16	!	!	!
8a>\L	.	.	.
!	!LO:N:vis=16	!	!
.	8cc/J 8ccc	.	.
!LO:N:vis=16	!	!	!
8g>\J	.	.	.
!	!LO:N:vis=16	!	!
.	8a/L 8aa	.	.
!LO:N:vis=16	!	!	!
8f>\L	.	.	.
!	!LO:N:vis=16	!	!
.	8g/J 8gg	.	.
16d>\Jk	.	.	.
*	*rscale:1	*	*
=94	=94	=94	=94
!	!LO:N:vis=16	!	!
16ryy	8f/L 8ff	.	.
!LO:N:vis=16	!	!	!
8c>\L	.	.	.
!	!LO:N:vis=16	!	!
.	8d/J 8dd	.	.
16A>\Jk	.	.	.
*clefF4	*	*	*
16c>\LL 16cc>	4ryy	.	.
16G/	.	.	.
16A>\ 16a>	.	.	.
16F/JJ	.	.	.
16G>\LL 16g>	4ryy	.	.
16D/	.	.	.
16F>\ 16f>	.	.	.
16C/JJ	.	.	.
=95	=95	=95	=95
!	!LO:N:vis=16	!	!
16ryy	8D</L 8d	.	.
!LO:N:vis=16	!	!	!
8AA\L	.	.	.
!	!LO:N:vis=16	!	!
.	8C</J 8c<	.	.
!LO:N:vis=16	!	!	!
8GG\J	.	.	.
!	!LO:TX:b:i:t=poco rit.	!	!
!	!LO:N:vis=16	!	!
.	8AA</L 8A<	.	.
!LO:N:vis=16	!	!	!
8FF\L	.	.	.
!	!LO:N:vis=16	!	!
.	8GG</J 8G<	.	.
!LO:N:vis=16	!	!	!
8DD\J	.	.	.
!	!LO:N:vis=16	!	!
.	8FF</L 8F<	.	.
!LO:N:vis=16	!	!	!
8CC\L	.	.	.
!	!LO:N:vis=16	!	!
.	8DD</J 8D<	.	.
16AAA\Jk	.	.	.
=96	=96	=96	=96
!	!LO:TX:b:i:t=tutta la forza	!	!
!	!LO:TX:a:i:t=poco stretto	!	!LO:DY:b=2
4DDD/ 4DD	4r	.	sf
4D\ 4F 4A 4c	4f\ 4g 4cc 4ff 4gg	.	.
4D\ 4F 4A 4c	4f\ 4g 4cc 4ff 4gg	.	.
!!LO:LB:g=original	!	!	!
=97	=97	=97	=97
4GGG/ 4GG	8f\L 8g 8cc 8ff 8gg	.	.
.	8a\J 8aa	.	.
4D\ 4F 4A 4c	4f\ 4a 4cc 4ff	.	.
4F\ 4G 4B	8e/L 8g 8b 8ee	.	.
.	8d/J 8dd	.	.
=98	=98	=98	=98
4CC/ 4C	8.c/L 8.e 8.b-X 8.cc	.	.
.	16d/Jk 16dd	.	.
4C\ 4E 4B-X 4d	4g\ 4gg	.	.
4C\ 4E 4B- 4c	4g\ 4b- 4cc 4ee 4gg	.	.
=99	=99	=99	=99
4FFF/ 4FF	16a\KL 16cc 16ff 16aa	.	.
.	[8.cc\J [8.ccc	.	.
4C\ 4F 4A 4c	4cc\] 4ccc]	.	.
4DDD/ 4DD	[4cc\ 4ff 4aa [4ccc	.	.
=100	=100	=100	=100
*^	*	*	*
*	*	*	*	*^
!	!	!LO:TX:a:i:t=poco sosten.	!	!LO:DY:b:t=sempre fff	!LO:DY:b=2
4GGG/ 4GG	4ryy	8cc\L] 8ff 8gg 8ccc]	.	fff	sf
.	.	8b\ 8bb	.	.	.
(4a^/	2G\ 2B 2f	8dd\ 8ff 8bb 8ddd	.	.	.
.	.	8ee\J 8eee	.	.	.
4g/)	.	[4ff\ [>4gg [4bb [4fff	.	.	.
*	*	*	*	*v	*v
=101	=101	=101	=101	=101
!	!	!	!	!LO:DY:b=2
4CC/ 4GG	4ryy	8ff\L] 8gg] 8bb] 8fff]	.	sf
.	.	8ee\ 8eee	.	.
(4a^/	2G\ 2c 2e	8dd\ 8gg 8ccc 8ddd	.	.
.	.	8ff\ 8fff	.	.
4g/)	.	8ee\ 8gg 8ccc 8eee	.	.
.	.	[8cc\J [8ccc	.	.
!!LO:PB:g=original	!	!	!	!
=102	=102	=102	=102	=102
!	!	!	!	!LO:DY:b=2
4CC/ 4GG	4ryy	8cc\L] 8ff 8gg 8ccc]	.	sf
.	.	8b\ 8bb	.	.
*	*	*8va	*	*
(4a/	2G\ 2B 2f	8dd\ 8ff 8bb 8ddd	.	.
.	.	8ee\ 8eee	.	.
4g/)	.	8ff\ 8bb 8fff	.	.
.	.	8aa\J 8aaa	.	.
=103	=103	=103	=103	=103
!	!	!	!	!LO:DY:b=2
4CC/ 4GG	4ryy	8ccc\L 8eee 8cccc	.	sf
.	.	8gg\ 8ggg	.	.
(4a/	2G\ 2c 2e	8ff\ 8fff	.	.
.	.	8ee\ 8eee	.	.
4g/)	.	8dd\ 8ddd	.	.
.	.	8cc\J 8ccc	.	.
*	*	*X8va	*	*
*v	*v	*	*	*
=104	=104	=104	=104
*	*^	*	*
!	!	!	!	!LO:DY:b=2
4CC/ 4GG	8r	4r	.	mf
!	!LO:TX:b:i:t=molto espress.	!	!	!
.	(8B/L	.	.	.
*clefG2	*	*	*	*
4a'^/	8d/	(4A\	.	.
.	8e/J	.	.	.
4g/	[4f/	4G\)	.	.
*clefF4	*	*	*	*
=105	=105	=105	=105	=105
4CC/ 4GG	8f/L]	4r	.	.
.	8e/	.	.	.
*clefG2	*	*	*	*
4a'^/	8d/	(4A\	.	.
.	8f/	.	.	.
4g/	8e/	4G\)	.	.
.	[8c/J	.	.	.
*clefF4	*	*	*	*
=106	=106	=106	=106	=106
!	!	!	!	!LO:HP:t=dim. e rall.
4DD#X/	8c/L]	4r	.	>
.	8B/	.	.	.
*clefG2	*	*	*	*
4cc#X'^\	8f#X/	(4c#X\	.	.
.	8g#X/J	.	.	.
4b\	[4a/	4B\)	.	.
*clefF4	*	*	*	*
!!LO:LB:g=original	!	!	!	!
=107	=107	=107	=107	=107
4EE/ 4BB	8a/L]	4r	.	.
.	8g#X/	.	.	.
*clefG2	*	*	*	*
4cc#X'\	8f#X/	(4c#X\	.	.
.	8a/	.	.	.
8b'\	8g#/	4B\)	.	.
8r	16e/Jk)	.	.	.
.	16r;	.	.	.
*clefF4	*	*	*	*
=108	=108	=108	=108	=108
!	!LO:TX:a:i:t=a tempo	!	!	!
4DDn/	8.r	4ryy	.	p
!	!LO:TX:b:i:t=scherzando	!	!	!
.	(16a/	.	.	.
4Fn\ 4A 4cn	8dd'\)	4ryy	.	.
.	8r	.	.	.
([4GGn\ 4B	[4dd^/	(4fny\	.	.
=109	=109	=109	=109	=109
4GG\]) 4B-X	8.dd/L]	4e\)	.	.
.	(16ee/Jk	.	.	.
4r	8cc'/)	4r	.	.
.	8r	.	.	.
4FF#X'/ 4F#X	8bn'/L	4d#X\	.	.
.	8a'/J	.	.	.
=110	=110	=110	=110	=110
4EE'/ 4E	(8.g/L	4dn\	.	.
.	16a/Jk	.	.	.
4r	8dd'/)	4r	.	.
.	8r	.	.	.
((4AA/ 4E	[4dd/	(4c#X\ 4g	.	.
=111	=111	=111	=111	=111
4DD/)) 4D	8.dd/L]	4cn\) 4f#X	.	.
.	(16ee/Jk	.	.	.
4r	4cc'/)	4r	.	.
4D\	8b'/L	4c\ 4f#X	.	.
.	8a'/J	.	.	.
!!LO:LB:g=original	!	!	!	!
=112	=112	=112	=112	=112
!	!	!LO:TX:t=P:problem: voice leading line	!	!
(<4GG/ 4D	(8.fn/L 8.g	4c\	.	.
.	16a/Jk	.	.	.
8B\)	8dd'>/)	4ryy	.	.
8r	8r	.	.	.
!	!	!LO:TX:t=P:problem: błąd wyświetlania VHV - po wpisaniu "N" łuk źle się wyświetla	!	!
4G\ (4d	(8.ff/L 8.gg	(<4cc\	.	.
.	16bb/Jk	.	.	.
*	*v	*v	*	*
=113	=113	=113	=113
8b>\))	8ddd'/)	.	.
8ryy	8r	.	.
*	*8va	*	*
(4G>\ 4d>	(8.ccc/L 8.fff 8.ggg	.	.
.	16aaa/Jk	.	.
8b>\)	8dddd'/)	.	.
*	*X8va	*	*
8r;	8r;	.	.
=114	=114	=114	=114
4CC/ 4C	8.r	.	ff
.	(16gg\	.	.
4G\ 4c 4e 4g	4cc\) 4ee 4ccc	.	.
8B'\L	8b'\L 8bb	.	.
8A'\J	8a'\J 8aa	.	.
=115	=115	=115	=115
8.G\L	8.g\L 8.gg	.	.
(16A\Jk	(16a\Jk 16aa	.	.
8d\)	8dd\) 8ddd	.	.
8r	8r	.	.
4GG/ 4D	4G/ 4B 4f 4g	.	.
=116	=116	=116	=116
8.CC/L 8.GG 8.C	8.G/L 8.c 8.e 8.g	.	.
(16GG/Jk	(16G/Jk	.	.
4C/)	4c/)	.	.
8BB'/L	8B'/L	.	.
8AA'/J	8A'/J	.	.
!!LO:LB:g=original	!	!	!
=117	=117	=117	=117
(8.GG/L	(8.G/L	.	.
16AA/Jk	16A/Jk	.	.
4D/)	4d/)	.	.
4GGG'/ 4GG	4f\ 4g 4b 4ff 4gg	.	.
=118	=118	=118	=118
4CCC'/ 4CC	4r	.	.
*	*8va	*	*
4G\ 4c 4e 4g	4ccc\ 4eee 4ggg 4cccc	.	.
8B^\L 8b	8bb^\L 8bbb	.	.
8G\J 8g	8gg\J 8ggg	.	.
=119	=119	=119	=119
8F\L 8f	8ff\L 8fff	.	.
8A\ 8a	8aa\ 8aaa	.	.
8G\ 8g	8gg\ 8ggg	.	.
8E\ 8e	8ee\ 8eee	.	.
8D\ 8d	8dd\ 8ddd	.	.
8F\J 8f	8ff\J 8fff	.	.
=120	=120	=120	=120
8E\L 8e	8ee/L 8eee	.	.
8C\ 8c	8cc/ 8ccc	.	.
8BB\ 8B	8b/ 8bb	.	.
8D\ 8d	8dd/ 8ddd	.	.
8C\ 8c	8cc/ 8ccc	.	.
8AA\J 8A	8a/J 8aa	.	.
*	*X8va	*	*
=121	=121	=121	=121
8GG/L 8G	8g\L 8gg	.	.
8BB/ 8B	8b\ 8bb	.	.
8AA/ 8A	8a\ 8aa	.	.
8FF/ 8F	8f\ 8ff	.	.
8EE/ 8E	8e\ 8ee	.	.
8GG/J 8G	8g\J 8gg	.	.
!!LO:LB:g=original	!	!	!
=122	=122	=122	=122
!	!LO:TX:b:i:t=poco allarg.	!	!
8FF/L 8F	8f/L 8ff	.	.
8DD/ 8D	8d/ 8dd	.	.
8CC/ 8C	8c/ 8cc	.	.
8EE/ 8E	8e/ 8ee	.	.
8DD/ 8D	8d/ 8dd	.	.
8BBB/J 8BB	8B/J 8b	.	.
=123	=123	=123	=123
8AAA/L 8AA	8A/L 8a	.	.
8CC/ 8C	8c/ 8cc	.	.
8BBB/ 8BB	8B/ 8b	.	.
8GGG/ 8GG	8G/ 8g	.	.
8FFF/ 8FF	8F/ 8f	.	.
8AAA/J 8AA	8A/J 8a	.	.
=124	=124	=124	=124
*^	*	*	*
!	!	!LO:TX:a:i:t=vivo	!	!
4r	2.EEE-X^\ 2.EE-X	4r	.	.
4G\ 4B 4e-X	.	4f\ 4a 4ee-X 4gg	.	.
4r	.	4gg\ 4bb 4eee-X 4ggg	.	.
=125	=125	=125	=125	=125
4r	2.GGG\ 2.GG	4r	.	.
!	!	!LO:TX:b:i:t=poco rit.	!	!
4F\ 4G 4B 4d#X	.	4f\ 4g 4b 4dd#X 4gg	.	.
4r	.	4ff\ 4gg 4bb 4ddd#X 4ggg	.	.
=126	=126	=126	=126	=126
4r	2.CCC\ 2.CC	8.r	.	.
*	*	*8va	*	*
.	.	16gg\ 16ccc 16eee 16ggg	.	.
4G\ 4c 4e 4g	.	4ccc\ 4cccc	.	.
4G\ 4c 4e 4g	.	4ccc\ 4eee 4ggg 4cccc	.	.
*	*	*X8va	*	*
*v	*v	*	*	*
*	*clefF4	*	*
=127	=127	=127	=127
2.CCC/ 2.CC	2.C\ 2.E 2.G 2.c	.	.
==	==	==	==
*-	*-	*-	*-
!!!system-decoration: {(s1,s2)}
!!!RDF**kern: > = above
!!!RDF**kern: < = below
!!!RDF**kern: N = linked
!!!ENC: Anastazja Marusiak
!!!END: 2023-10-22
!!!EED: Jan Barakat
!!!EEV: 2023-11-18
!!!YEM: Copyright © 2023 by [Copyright Holder]
